X:1
T:Whiteland, LM
T:Whiteland, LM
T:Lowell Mason, 1844
T:Public Domain Courtesy of the Cyber Hymnal™
C:Lowell Mason, 1844
Z:Public Domain
Z:Courtesy of the Cyber Hymnal™
%%score 1 2 3 4
L:1/8
Q:1/4=110
M:3/4
K:A
V:1 treble 
V:2 treble 
V:3 treble-8 
V:4 bass 
V:1
 c2 d2 c2 | (c2 B2) A2 | (FB c2) d2 | (c2 B2) z2 | z4 e2 | (e2 d2) c2 | (dc B2) A2 | e4 c2 | %8
 (c2 B2) ^A2 | B4 B2 | (B2 A2) G2 | A4 e2 | d4 c2 | B4 A2 | (d2 c2) (Bd) | c4 |] %16
V:2
 E2 E2 E2 | E4 E2 | (F2 E2) E2 | E4 c2 | c2 B2 A2 | (A2 G2) (AE) | (E2 FG) A2 | (A2 G2) E2 | %8
 (E2 D2) C2 | D4 D2 | (D2 C2) B,2 | C4 A2 | A4 A2 | G4 A2 | (F2 E2) E2 | A4 |] %16
V:3
 A2 B2 A2 | (A2 G2) A2 | (cB A2) G2 | A4 e2 | e2 d2 c2 | (c2 B2) A2 | (GA d2) c2 | (c2 B2) z2 | %8
 z6 | z6 | z6 | z4 e2 | f4 e2 | (e2 d2) c2 | (cB A2) G2 | A4 |] %16
V:4
 A,2 G,2 A,2 | (E,3 D,) C,2 | (D,2 E,2) E,2 | A,,4 z2 | z4 E2 | (E2 D2) C2 | (DC B,2) A,2 | %7
 E4 F,2 | F,4 F,2 | B,,4 B,,2 | E,4 E,2 | A,,4 C,2 | B,,4 A,,2 | E,4 F,2 | (D,2 E,2) E,2 | A,,4 |] %16

